X:1
T:Hagerstown, LM
T:Hagerstown, LM
T:John David Brunk, 1902
T:Public Domain Courtesy of the Cyber Hymnal™
C:John David Brunk, 1902
Z:Public Domain
Z:Courtesy of the Cyber Hymnal™
%%score ( 1 2 ) ( 3 4 )
L:1/8
Q:1/4=115
M:3/4
K:Ab
V:1 treble 
V:2 treble 
V:3 bass 
V:4 bass 
V:1
 [CE]2 | [Ec]2 A2 [DF]2 | [CE]2 [DF]2 [DG]2 | [EA]2 [DG]2 [Ac]2 | [GB]4 [GB]2 | [CA]2 [EB]2 [Ec]2 | %6
 [Ge]2 [Ed]2 [Ec]2 | [=Dc]2 B2 [DA]2 | [EB]4 E2 | [Ec]2 A2 [DF]2 | [CE]2 [DF]2 [DG]2 | %11
 [EA]2 B2 [_Gc]2 | [Fd]4 [Fd]2 | [Ec]2 A2 [Gf]2 | [Ae]2 E2 [Gd]2 | [Bc]2 A2 [GB]2 | [EA]4 |] %17
V:2
 x2 | x2 A2 x2 | x6 | x6 | x6 | x6 | x6 | x6 | x4 E2 | x2 A2 x2 | x6 | x2 B2 x2 | x6 | x2 A2 x2 | %14
 x2 E2 x2 | x2 A2 x2 | x4 |] %17
V:3
 A,,2 | [A,,A,]2 C,2 [D,A,]2 | [E,A,]2 G,2 [D,B,]2 | [C,A,]2 B,,2 [A,,E]2 | [E,E]4 [E,D]2 | %5
 A,,2 [D,G,]2 [C,A,]2 | [B,,B,]2 G,2 [A,,A,]2 | [F,A,]4 [B,,A,]2 | [E,G,]4 [E,G,]2 | %9
 [A,,A,]2 C,2 [D,A,]2 | [E,A,]2 G,2 [D,B,]2 | [C,A,]2 B,,2 [A,,A,]2 | [D,A,]4 [D,A,]2 | %13
 [E,A,]4 [E,D]2 | [E,-C]2 E,2 [E,F]2 | z2 E,2 [E,D]2 | [A,,C]4 |] %17
V:4
 A,,2 | x2 C,2 x2 | x2 G,2 x2 | x2 B,,2 x2 | x6 | A,,2 x4 | x2 G,2 x2 | x6 | x6 | x2 C,2 x2 | x6 | %11
 x2 B,,2 x2 | x6 | x6 | x6 | E,4 x2 | x4 |] %17

